rospo-light/24x24/actions/transform-skew-horizontal.svg

<svg height="24" viewBox="0 0 24 24" width="24" xmlns="http://www.w3.org/2000/svg"><path d="m3 0-3 2.5 3 2.5v-2h3v-1h-3zm0 5h-2.74609375a.71624863.34803699 34.650572 0 0 -.1328125.4980469l9.61718745 13.0019531a.71624863.34803699 34.650572 0 0  .8691408.498047h13.138672a.71624863.34803699 34.650572 0 0  .132812-.498047l-9.617187-13.0019531a.71624863.34803699 34.650572 0 0 -.869141-.4980469zm-1.5097656.9960938h12.1386716l8.88086 12.0078122h-12.136719zm19.5097656 13.0039062v2h-3v1h3v2l3-2.5z" fill="#31363b"/><path d="m1.9921875 6c-.2767549-.00009-.3360155.2229869-.1328125.4980469l8.140625 11.0039061c.203354.27506.592522.498137.869141.498047h11.136718c.276755.00009.336016-.222987.132813-.498047l-8.138672-11.0039061c-.203354-.27506-.592522-.4981369-.869141-.4980469z" fill="#31363b" opacity=".3"/></svg>

<svg xmlns="http://www.w3.org/2000/svg" width="24" height="24" viewBox="0 0 24 24">
 <defs>
  <style id="current-color-scheme" type="text/css">
   .ColorScheme-Text { color:#31363b; } .ColorScheme-Highlight { color:#3daee9; }
  </style>
 </defs>
 <path style="fill:currentColor" class="ColorScheme-Text" d="M 3 0 L 0 2.5 L 3 5 L 3 3 L 6 3 L 6 2 L 3 2 L 3 0 z M 3 5 L 0.25390625 5 A 0.71624863 0.34803699 34.650572 0 0 0.12109375 5.4980469 L 9.7382812 18.5 A 0.71624863 0.34803699 34.650572 0 0 10.607422 18.998047 L 23.746094 18.998047 A 0.71624863 0.34803699 34.650572 0 0 23.878906 18.5 L 14.261719 5.4980469 A 0.71624863 0.34803699 34.650572 0 0 13.392578 5 L 3 5 z M 1.4902344 5.9960938 L 13.628906 5.9960938 L 22.509766 18.003906 L 10.373047 18.003906 L 1.4902344 5.9960938 z M 21 19 L 21 21 L 18 21 L 18 22 L 21 22 L 21 24 L 24 21.5 L 21 19 z"/>
 <path style="fill:currentColor;opacity:0.3" class="ColorScheme-Text" d="M 1.9921875 6 C 1.7154326 5.99991 1.656172 6.2229869 1.859375 6.4980469 L 10 17.501953 C 10.203354 17.777013 10.592522 18.00009 10.869141 18 L 22.005859 18 C 22.282614 18.00009 22.341875 17.777013 22.138672 17.501953 L 14 6.4980469 C 13.796646 6.2229869 13.407478 5.99991 13.130859 6 L 1.9921875 6 z"/>
</svg>
